web/wp-content/themes/cncf-twenty-two/images/projects/nats-icon-color.svg

<svg enable-background="new 0 0 288 288" viewBox="2.42 -.33 280.4 289.9" xmlns="http://www.w3.org/2000/svg"><path d="m142.8 5.3h134.7v109.2h-134.7z" fill="#34a574"/><path d="m8.1 5.3h134.7v109.2h-134.7z" fill="#27aae1"/><path d="m142.8 114.6h134.7v109.2h-134.7z" fill="#8dc63f"/><path d="m8.1 114.6h134.7v109.2h-134.7z" fill="#375c93"/><path d="m123 223.2 65.9 61v-61z" fill="#8dc63f"/><path d="m142.8 223.2.7 19.2-21.1-19.7z" fill="#375c93"/><path d="m198.6 146.5v-90.4h32.2v116.9h-48.8l-98.5-92v92.1h-32.3v-117h50.5z" fill="#fff"/></svg>

<svg xmlns="http://www.w3.org/2000/svg" role="img" viewBox="2.42 -0.33 280.40 289.90"><style>svg {enable-background:new 0 0 288 288}</style><style>.st3{fill:#375c93}.st4{fill:#8dc63f}</style><path fill="#34a574" d="M142.8 5.3h134.7v109.2H142.8z"/><path fill="#27aae1" d="M8.1 5.3h134.7v109.2H8.1z"/><path d="M142.8 114.6h134.7v109.2H142.8z" class="st4"/><path d="M8.1 114.6h134.7v109.2H8.1z" class="st3"/><path d="M123 223.2l65.9 61v-61z" class="st4"/><path d="M142.8 223.2l.7 19.2-21.1-19.7z" class="st3"/><path fill="#fff" d="M198.6 146.5V56.1h32.2V173H182L83.5 81v92.1H51.2v-117h50.5l96.9 90.4z"/></svg>
